assets/icons/mail/signed.svg

<?xml version="1.0" encoding="UTF-8" standalone="no"?>
<svg
   viewBox="0 0 24 24"
   height="24"
   width="24"
   version="1.1"
   id="svg4"
   sodipodi:docname="signed.svg"
   inkscape:version="1.2 (1:1.2.1+202207142221+cd75a1ee6d)"
   xmlns:inkscape="http://www.inkscape.org/namespaces/inkscape"
   xmlns:sodipodi="http://sodipodi.sourceforge.net/DTD/sodipodi-0.dtd"
   xmlns="http://www.w3.org/2000/svg"
   xmlns:svg="http://www.w3.org/2000/svg">
  <defs
     id="defs8" />
  <sodipodi:namedview
     id="namedview6"
     pagecolor="#ffffff"
     bordercolor="#666666"
     borderopacity="1.0"
     inkscape:pageshadow="2"
     inkscape:pageopacity="0.0"
     inkscape:pagecheckerboard="0"
     showgrid="true"
     inkscape:snap-page="true"
     inkscape:zoom="28"
     inkscape:cx="11.285714"
     inkscape:cy="11.375"
     inkscape:window-width="1850"
     inkscape:window-height="1016"
     inkscape:window-x="0"
     inkscape:window-y="0"
     inkscape:window-maximized="1"
     inkscape:current-layer="svg4"
     inkscape:showpageshadow="2"
     inkscape:deskcolor="#d1d1d1">
    <inkscape:grid
       type="xygrid"
       id="grid6" />
  </sodipodi:namedview>
  <path
     style="fill:#808080;stroke-width:1"
     d="m 5.0149997,6 -0.35625,0.5475 7.3412503,5.275001 7.34375,-5.295001 -0.35625,-0.5275 -6.9875,4.21625 z"
     id="path1048" />
  <path
     id="path864"
     style="color:#000000;fill:#808080;fill-opacity:1"
     d="M 4.7871094 3 C 4.1101664 3.00559 3.5365049 3.0481532 3.0273438 3.3027344 C 2.6879026 3.4724548 2.3973376 3.7651696 2.2304688 4.140625 C 2.0635993 4.5160804 2 4.9583359 2 5.5 L 2 8 L 2 13 L 2 15.5 C 2 16.041663 2.0635991 16.483919 2.2304688 16.859375 C 2.3973376 17.234831 2.6879026 17.527545 3.0273438 17.697266 C 3.5365049 17.951848 4.1101664 17.9944 4.7871094 18 C 5.0127568 18.0019 5.2500011 18 5.5 18 L 7 18 L 7 17 L 5.5 17 C 4.500005 17 3.7937692 16.96329 3.4726562 16.802734 C 3.3120999 16.722454 3.2276612 16.640167 3.1445312 16.453125 C 3.0614013 16.266083 3 15.958332 3 15.5 L 3 13 L 3 8 L 3 5.5 C 3 5.0416691 3.0614011 4.7339166 3.1445312 4.546875 C 3.2276612 4.3598334 3.3120999 4.2775438 3.4726562 4.1972656 C 3.7937692 4.0367093 4.500005 4 5.5 4 L 18.5 4 C 19.499995 4 20.20623 4.0367082 20.527344 4.1972656 C 20.687901 4.2775445 20.772339 4.3598334 20.855469 4.546875 C 20.938599 4.7339166 21 5.0416691 21 5.5 L 21 8 L 21 13 L 22 13 L 22 8 L 22 5.5 C 22 4.9583359 21.9364 4.5160804 21.769531 4.140625 C 21.602661 3.7651696 21.312099 3.4724548 20.972656 3.3027344 C 20.293775 2.9632932 19.499995 3 18.5 3 L 5.5 3 C 5.2500011 3 5.0127568 2.99814 4.7871094 3 z " />
  <path
     style="color:#000000;fill:#808080;stroke-linecap:round;stroke-linejoin:round;-inkscape-stroke:none"
     d="m 12.992188,13.015625 a 0.50005,0.50005 0 0 0 -0.345704,0.314453 c 0,0 -0.615455,1.699076 -1.632812,3.386719 c -0.508679,0.843821 -1.1185134,1.679483 -1.7714845,2.28125 c -0.6529711,0.601767 -1.3267498,0.955078 -1.9921875,0.955078 a 0.5,0.5 0 0 0 -0.5,0.5 a 0.5,0.5 0 0 0 0.5,0.5 c 1.0110311,0 1.9083723,-0.516919 2.6699219,-1.21875 c 0.7615491,-0.701831 1.4101041,-1.60569 1.9492191,-2.5 c 0.406536,-0.674382 0.377274,-0.767524 0.648437,-1.34375 c -0.0097,0.497578 -0.107283,1.217165 -0.06836,1.597656 c 0.04932,0.482119 0.135107,0.874896 0.289062,1.203125 c 0.153956,0.328229 0.410498,0.61471 0.761719,0.71875 c 0.351221,0.10404 0.706947,0.01325 1.023438,-0.15625 c 0.31649,-0.169498 0.62543,-0.425265 0.955078,-0.759765 c 0.385369,-0.391043 0.867276,-1.131749 1.314453,-1.746094 c -0.01877,0.659647 -0.123652,1.477108 -0.02539,1.935547 c 0.178378,0.832224 0.619273,1.437068 1.253906,1.601562 c 0.634634,0.164494 1.273299,-0.07902 1.90625,-0.466797 c 0.632952,-0.387773 1.283694,-0.955173 1.931641,-1.626953 a 0.5,0.5 0 0 0 -0.01172,-0.707031 a 0.5,0.5 0 0 0 -0.707031,0.01367 c -0.609404,0.631819 -1.216707,1.150408 -1.736328,1.46875 c -0.519621,0.318342 -0.927259,0.402382 -1.13086,0.349609 c -0.2036,-0.05277 -0.391383,-0.209425 -0.527343,-0.84375 c -0.13596,-0.634324 -0.146571,-1.677045 0.05859,-3.166015 a 0.50005,0.50005 0 0 0 -0.916015,-0.339844 c -0.827983,1.287655 -1.551185,2.245891 -2.123047,2.826172 c -0.285931,0.29014 -0.534954,0.48283 -0.712891,0.578125 c -0.177936,0.0953 -0.254024,0.08467 -0.269531,0.08008 c -0.01551,-0.0046 -0.06015,-0.01618 -0.138672,-0.183594 c -0.07852,-0.16741 -0.156856,-0.466754 -0.199218,-0.880859 c -0.08473,-0.828211 -0.03922,-2.109657 0.167968,-3.828125 a 0.50005,0.50005 0 0 0 -0.621093,-0.542969 z"
     id="path1031" />
</svg>

<svg height="24" width="24" xmlns="http://www.w3.org/2000/svg"><path style="fill:gray;stroke-width:1" d="m5.015 6-.356.547L12 11.823l7.344-5.296L18.987 6 12 10.216z"/><path style="color:#000;fill:gray;fill-opacity:1" d="M4.787 3c-.677.006-1.25.048-1.76.303-.34.17-.63.462-.797.838C2.064 4.516 2 4.958 2 5.5v10c0 .542.064.984.23 1.36.167.375.458.668.797.837.51.255 1.083.297 1.76.303.226.002.463 0 .713 0H7v-1H5.5c-1 0-1.706-.037-2.027-.197a.615.615 0 0 1-.328-.35C3.06 16.266 3 15.958 3 15.5v-10c0-.458.061-.766.145-.953a.615.615 0 0 1 .328-.35C3.793 4.037 4.5 4 5.5 4h13c1 0 1.706.037 2.027.197.16.08.245.163.328.35.084.187.145.495.145.953V13h1V5.5c0-.542-.064-.984-.23-1.36a1.72 1.72 0 0 0-.797-.837C20.293 2.963 19.5 3 18.5 3h-13c-.25 0-.487-.002-.713 0z"/><path style="color:#000;fill:gray;stroke-linecap:round;stroke-linejoin:round;-inkscape-stroke:none" d="M12.992 13.016a.5.5 0 0 0-.346.314s-.615 1.7-1.632 3.387c-.509.844-1.119 1.68-1.772 2.281-.653.602-1.327.955-1.992.955a.5.5 0 0 0-.5.5.5.5 0 0 0 .5.5c1.011 0 1.908-.517 2.67-1.219.761-.701 1.41-1.605 1.95-2.5.406-.674.376-.767.648-1.343-.01.497-.108 1.217-.069 1.597.05.482.135.875.29 1.203.153.329.41.615.761.72.351.103.707.012 1.023-.157.317-.17.626-.425.956-.76.385-.39.867-1.132 1.314-1.746-.019.66-.124 1.477-.025 1.936.178.832.619 1.437 1.253 1.601.635.165 1.274-.079 1.907-.467.633-.387 1.283-.955 1.931-1.627a.5.5 0 0 0-.011-.707.5.5 0 0 0-.707.014c-.61.632-1.217 1.15-1.737 1.469-.52.318-.927.402-1.13.35-.204-.053-.392-.21-.528-.844-.136-.635-.146-1.677.059-3.166a.5.5 0 0 0-.916-.34c-.828 1.287-1.552 2.246-2.123 2.826-.286.29-.535.483-.713.578-.178.095-.254.085-.27.08-.015-.004-.06-.016-.138-.183-.079-.168-.157-.467-.2-.881-.084-.828-.039-2.11.168-3.828a.5.5 0 0 0-.62-.543z"/></svg>
